X:1
T:Poor Old Maid
M:4/4
L:1/8
K:F
 AA GF G/2 G3/2 A2| D2 E2 F4| A3/2 A/2 GF GG A2| D2 E2 F3 c| c3/2 c/2 cA B/2 B3/2 d3/2 A/2|\
 cc c A/2A/2 B/2 B3/2 d3/2 c/2| f3/2 d/2 cA G/2 F3/2 A2| D2 E2 F4|\
